www/assets/icons/bathtub.svg

<svg xmlns="http://www.w3.org/2000/svg" width="24" height="24" viewBox="0 0 24 24" fill='currentColor'><path d="M7 9a2 2 0 1 0 0-4 2 2 0 0 0 0 4"/><path d="M20 13V4.83C20 3.27 18.73 2 17.17 2c-.75 0-1.47.3-2 .83l-1.25 1.25c-.16-.05-.33-.08-.51-.08-.4 0-.77.12-1.08.32l2.76 2.76c.2-.31.32-.68.32-1.08 0-.18-.03-.34-.07-.51l1.25-1.25a.828.828 0 0 1 1.41.59V13h-6.85c-.3-.21-.57-.45-.82-.72l-1.4-1.55c-.19-.21-.43-.38-.69-.5A2.25 2.25 0 0 0 5 12.25V13H2v6c0 1.1.9 2 2 2 0 .55.45 1 1 1h14c.55 0 1-.45 1-1 1.1 0 2-.9 2-2v-6z"/></svg>

<svg width="24" height="24" viewBox="0 0 24 24" xmlns="http://www.w3.org/2000/svg" fill='currentColor'><path d="M7 9C8.10457 9 9 8.10457 9 7C9 5.89543 8.10457 5 7 5C5.89543 5 5 5.89543 5 7C5 8.10457 5.89543 9 7 9Z"/><path d="M20 13V4.83C20 3.27 18.73 2 17.17 2C16.42 2 15.7 2.3 15.17 2.83L13.92 4.08C13.76 4.03 13.59 4 13.41 4C13.01 4 12.64 4.12 12.33 4.32L15.09 7.08C15.29 6.77 15.41 6.4 15.41 6C15.41 5.82 15.38 5.66 15.34 5.49L16.59 4.24C16.74 4.09 16.95 4 17.17 4C17.63 4 18 4.37 18 4.83V13H11.15C10.85 12.79 10.58 12.55 10.33 12.28L8.93 10.73C8.74 10.52 8.5 10.35 8.24 10.23C7.93 10.08 7.59 10 7.24 10C6 10.01 5 11.01 5 12.25V13H2V19C2 20.1 2.9 21 4 21C4 21.55 4.45 22 5 22H19C19.55 22 20 21.55 20 21C21.1 21 22 20.1 22 19V13H20Z"/></svg>
